X: 552
U:~=!turn!
M:C
L:1/8
K:A
((3efg) | a2 Ac e2 EG | A2 A,C E2 AB | d2 fd c2 ec | Bbba gefg | a2 Ac e2 EG |
f2 fe dcBA | GBe^d efge | a2 ag f2 fe | dcBA GFED | CEAd cBAG | B2 A2 A2 :|


